src/standard/objects/calculator.svg

<svg xmlns="http://www.w3.org/2000/svg" viewBox="0 0 36 36">
  <path d="M27 4.38H9a.62.62 0 0 0-.62.62v26a.62.62 0 0 0 .62.62h18a.62.62 0 0 0 .62-.62V5a.62.62 0 0 0-.62-.62Zm-.62 26H9.62V5.62h16.76Z"/>
  <path d="M12 12.62h12a.62.62 0 0 0 .62-.62V8a.62.62 0 0 0-.62-.62H12a.62.62 0 0 0-.62.62v4a.62.62 0 0 0 .62.62Zm.62-4h10.76v2.76H12.62Zm-.62 20h7a.62.62 0 0 0 0-1.24h-7a.62.62 0 1 0 0 1.24Zm12-1.24h-2a.62.62 0 0 0 0 1.24h2a.62.62 0 0 0 0-1.24Zm0-4h-2a.62.62 0 0 0 0 1.24h2a.62.62 0 0 0 0-1.24Zm0-4h-2a.62.62 0 0 0 0 1.24h2a.62.62 0 0 0 0-1.24Zm0-4h-2a.62.62 0 0 0 0 1.24h2a.62.62 0 1 0 0-1.24Zm-5 8h-2a.62.62 0 0 0 0 1.24h2a.62.62 0 0 0 0-1.24Zm0-4h-2a.62.62 0 0 0 0 1.24h2a.62.62 0 0 0 0-1.24Zm0-4h-2a.62.62 0 0 0 0 1.24h2a.62.62 0 1 0 0-1.24Zm-7 9.24h2a.62.62 0 0 0 0-1.24h-2a.62.62 0 1 0 0 1.24Zm0-4h2a.62.62 0 0 0 0-1.24h-2a.62.62 0 0 0 0 1.24Zm0-4h2a.62.62 0 0 0 0-1.24h-2a.62.62 0 0 0 0 1.24Z"/>
</svg>

<svg id="aaae13a0-6a3b-436a-9908-901970343aab" data-name="Icon" xmlns="http://www.w3.org/2000/svg" viewBox="0 0 36 36">
  <g>
    <path d="M27,4.38H9A.62.62,0,0,0,8.38,5V31a.62.62,0,0,0,.62.62H27a.62.62,0,0,0,.62-.62V5A.62.62,0,0,0,27,4.38Zm-.62,26H9.62V5.62H26.38Z"/>
    <path d="M12,12.62H24a.62.62,0,0,0,.62-.62V8A.62.62,0,0,0,24,7.38H12a.62.62,0,0,0-.62.62v4A.62.62,0,0,0,12,12.62Zm.62-4H23.38v2.76H12.62Z"/>
    <path d="M12,28.62h7a.62.62,0,0,0,0-1.24H12a.62.62,0,1,0,0,1.24Z"/>
    <path d="M24,27.38H22a.62.62,0,0,0,0,1.24h2a.62.62,0,0,0,0-1.24Z"/>
    <path d="M24,23.38H22a.62.62,0,0,0,0,1.24h2a.62.62,0,0,0,0-1.24Z"/>
    <path d="M24,19.38H22a.62.62,0,0,0,0,1.24h2a.62.62,0,0,0,0-1.24Z"/>
    <path d="M24,15.38H22a.62.62,0,0,0,0,1.24h2a.62.62,0,1,0,0-1.24Z"/>
    <path d="M19,23.38H17a.62.62,0,0,0,0,1.24h2a.62.62,0,0,0,0-1.24Z"/>
    <path d="M19,19.38H17a.62.62,0,0,0,0,1.24h2a.62.62,0,0,0,0-1.24Z"/>
    <path d="M19,15.38H17a.62.62,0,0,0,0,1.24h2a.62.62,0,1,0,0-1.24Z"/>
    <path d="M12,24.62h2a.62.62,0,0,0,0-1.24H12a.62.62,0,1,0,0,1.24Z"/>
    <path d="M12,20.62h2a.62.62,0,0,0,0-1.24H12a.62.62,0,0,0,0,1.24Z"/>
    <path d="M12,16.62h2a.62.62,0,0,0,0-1.24H12a.62.62,0,0,0,0,1.24Z"/>
  </g>
</svg>
